!!!!SEGMENT: pl-wumfc--r266--003_paderewski-ignacy-jan--tatra-album-allegro-con-motto.krn
!!!cenid: 18xx:3155
!!!COM: Paderewski, Ignacy Jan
!!!COM-rismID: pe30029943
!!!CDT: 1860/11/18-1941/06/29
!!!CNT: Polish
!!!GTL: Tatra Album
!!!OTL: Allegro con motto
!!!PDT:
!!!AGN:
!!!SMS-siglum: PL-Wumfc
!!!SMS-shelfmark: R266
!!!SMS-shelfwork: 003 G
!!!SMS-variant:
!!!SMS-altvar:
!!!NIFC-rismSourceID: 1001156299
!!!NIFC-islandoraID: pl-wumfc:309
!!!URL-pdf-islandora: https://repozytorium.nifc.pl/islandora/object/pl-wumfc%3A309/datastream/PDF/view
!!!URL-scan: https://polish.musicsources.pl/pl/lokalizacje/galeria/rekopisy/4686 @EN{Scan on Polish Music Sources Website} @PL{Skany w portalu Dziedzictwo Muzyki Polskiej w otwartym dostępie}
!!!ONB-nifc: UWAGA: zbiór zawiera utwory na 4 ręce numerowane I-VI. Nr 003 od skanu 0008
!!!AIN: 2 piano
!!!key: A
!!!filter-modern: sic -sq | shed -e "s/yy//" | shed -ke "s/\(y(?!y)/(/" | shed -e "s/:rj/:RJ/L" | shed -k -e "s/([^a-gA-Gn#X-])[<>]/$1/g" | shed -e "s/LO:DY:(a|b|rj)/LO:dy:$1/L" | shed -e "s/-//B" | shed -k -e "s/:TUP:/:tup:/L" | autostem -r | modori -m
**kern	**kern	**dynam	**kern	**fing	**kern	**fing	**dynam
*part2	*part2	*part2	*part1	*part1	*part1	*part1	*part1
*staff4	*staff3	*	*staff2	*staff2	*staff1	*staff1	*
*I"Clavier [four-hands]	*I"Clavier [four-hands]	*	*I"Clavier [four-hands]	*	*I"Clavier [four-hands]	*	*
*I'	*I'	*	*I'	*	*I'	*	*
*Ipiano	*Ipiano	*	*Ipiano	*	*Ipiano	*	*
*ICklav	*ICklav	*	*ICklav	*	*ICklav	*	*
*IGsolo	*IGsolo	*	*IGsolo	*	*IGsolo	*	*
*mI"Pianoforte II	*mI"Pianoforte II	*	*mI"Pianoforte I	*	*mI"Pianoforte I	*	*
*mI'pf II	*mI'pf II	*	*mI'pf I	*	*mI'pf I	*	*
*clefF4	*clefF4	*	*clefG2	*	*clefG2	*	*
*k[f#c#g#]	*k[f#c#g#]	*	*k[f#c#g#]	*	*k[f#c#g#]	*	*
*A:	*A:	*	*A:	*	*A:	*	*
*M2/4	*M2/4	*	*M2/4	*	*M2/4	*	*
=1	=1	=1	=1	=1	=1	=1	=1
!!!OMD:
!!!OMD-mod: Allegro con molto
*ped	*	*	*	*	*	*	*
!	!LO:TX:a:B:t=Allegro con molto.:mod=	!LO:MO:null:mod=p	!	!	!LO:TX:a:B:t=Allegro con molto.:mod=	!	!
4AAA^\	8r	.	8r	.	4r	.	.
!	!	!LO:DY:t=piano.	!	!	!	!	!
!	!	!LO:MO:null:mod=.	!	!	!	!	!
.	4.c# 4.A 4.E^\	p	4e^>/	.	.	.	.
4AA\	.	.	.	.	8r	.	.
.	.	.	8cc#:: 8a:: 8e::/	.	8eee:: 8ccc#:: 8aa:: 8ee::\	.	f
=2	=2	=2	=2	=2	=2	=2	=2
4AAA^\	8r	.	8r	.	4r	.	.
.	4.c# 4.A 4.E^\	.	4e^>/	.	.	.	.
4AA\	.	.	.	.	8r	.	.
.	.	.	8cc#:: 8a:: 8e::/	.	8eee:: 8ccc#:: 8aa:: 8ee::\	.	.
=3	=3	=3	=3	=3	=3	=3	=3
!	!	!LO:MO:null:mod=f	!	!	!	!	!
4AAA\	(8.A\L	.	8r	.	8r	.	.
!	!	!LO:DY:t=forte	!	!	!	!	!
!	!	!LO:MO:null:mod=.	!	!	!	!	!
.	.	f	4cc# 4a 4e/	.	4ee^\	.	.
.	16B\Jk	.	.	.	.	.	.
4E 4AA\	8c#\L	.	.	.	.	.	.
.	8A\J	.	8cc#:: 8a:: 8e::/	.	8eee:: 8ccc#:: 8aa:: 8ee::\	.	.
=4	=4	=4	=4	=4	=4	=4	=4
4AAA\	8.B\L	.	8r	.	8r	.	.
.	.	.	4g# 4e/	.	4ee^\	.	.
.	16c#\Jk	.	.	.	.	.	.
4E\	8dL 8G#\	.	.	.	.	.	.
.	8c#\J	.	8cc#:: 8g#:: 8e::/	.	8eee:: 8gg#:: 8ee::\	.	.
=5	=5	=5	=5	=5	=5	=5	=5
4AAA\	8B'\L	.	8r	.	8r	.	.
.	8A'\J	.	4dd 4b 4e/	.	4ee^\	.	f
4E 4EE\	4G#^\	.	.	.	.	.	.
.	.	.	8dd:: 8b:: 8e::/	.	8eee:: 8gg#:: 8ee::\	.	.
=6	=6	=6	=6	=6	=6	=6	=6
*	*^	*	*	*	*	*	*
*	*	*^	*	*	*	*	*	*
!	!	!LO:MO:mod=2ryyyy	!	!	!	!	!	!	!
4AAA\	2A/)	2A\	4rAA	.	8r	.	8r	.	.
.	.	.	.	.	4cc# 4a 4e/	.	4ee^\	.	.
4AA\	.	.	4E 4C#\	.	.	.	.	.	.
.	.	.	.	.	8cc#:: 8a:: 8e::/	.	8eee:: 8ccc#:: 8aa:: 8ee::\	.	.
*	*	*v	*v	*	*	*	*	*	*
*	*v	*v	*	*	*	*	*	*
!!LO:LB:g=original
=7	=7	=7	=7	=7	=7	=7	=7
4AAA\	(8.A\L	<	8r	.	8r	.	.
.	.	.	4cc# 4a 4e/	.	4ee^\	.	.
.	16B\Jk	.	.	.	.	.	f
4E 4AA\	8c#\L	.	.	.	.	.	.
.	8A\J	.	8cc#:: 8a:: 8e::/	.	8eee:: 8ccc#:: 8aa:: 8ee::\	.	.
=8	=8	=8	=8	=8	=8	=8	=8
4AAA\	16B\LL	.	8r	.	8r	.	.
.	16e\	.	.	.	.	.	.
.	16B\	[	4g#/	.	4ee^\	.	.
.	16c#\JJ	.	.	.	.	.	.
4E\	8dL 8G#\	.	.	.	.	.	.
.	8c#\J	.	8cc#:: 8g#:: 8e::/	.	8eee:: 8gg#:: 8ee::\	.	.
=9	=9	=9	=9	=9	=9	=9	=9
4AAA\	8B'\L	.	8r	.	8r	.	.
.	8A'\J	.	4dd 4b 4e/	.	4ee^\	.	.
4E 4EE\	4G#^\	.	.	.	.	.	.
.	.	.	8dd:: 8b:: 8e::/	.	8eee:: 8gg#:: 8ee::\	.	.
=10	=10	=10	=10	=10	=10	=10	=10
*	*^	*	*	*	*	*	*
*	*	*^	*	*	*	*	*	*
!	!	!LO:MO:mod=2ryyyy	!	!	!	!	!	!	!
4AAA\	2A/)	2A\	4rAA	.	8r	.	8r	.	.
.	.	.	.	.	4cc# 4a 4e/	.	4ee\	.	.
4AA\	.	.	4E 4C#\	.	.	.	.	.	.
.	.	.	.	.	8cc#:: 8a:: 8e::/	.	8aaa:: 8ccc#:: 8aa::\	.	.
*	*	*v	*v	*	*	*	*	*	*
*	*v	*v	*	*	*	*	*	*
=11	=11	=11	=11	=11	=11	=11	=11
!!!OMD:
!!!OMD-mod: Maestoso
!	!LO:TX:a:i:t=Maestoso.:mod=	!	!	!	!LO:TX:a:i:t=Maestoso:mod=	!	!
!	!LO:TX:b:t=e:color=gray:mod=	!	!LO:TUP:a:problem=klamra łukowa	!	!LO:TUP:a:problem=klamra łukowa	!	!LO:MO:null:mod=ff
2C#\	2A 2E\	.	(>6e/	.	(6ee\	.	.
!	!	!	!	!	!	!	!LO:DY:rj
!	!	!	!	!	!	!	!LO:MO:null:mod=.
.	.	.	6d/	.	6dd\	.	ff
.	.	.	6e/	.	6ee\	.	.
=12	=12	=12	=12	=12	=12	=12	=12
2FF#\	2A 2F# 2C#\	.	4.f#/	.	4.ff#\	.	.
.	.	.	8c#/)	.	8cc#\)	.	.
!!LO:PB:g=original
=13	=13	=13	=13	=13	=13	=13	=13
!	!	!	!LO:TUP:b:problem=klamra łukowa	!	!LO:TUP:a:problem=klamra łukowa	!	!
2BB 2BBB\	4B 4F# 4D\	.	(>6d/	.	(6dd\	.	.
.	.	.	6c#/	.	6cc#\	.	.
.	4F# 4D\	.	.	.	.	.	.
.	.	.	6B/	.	6b\	.	.
=14	=14	=14	=14	=14	=14	=14	=14
!	!LO:TX:b:i:t=rit:mod=rit.	!	!	!	!LO:TX:b:i:t=rit.	!	!
2EE\	2G# 2E 2BB\	.	4.e/	.	4.ee\	.	.
.	.	.	8B/)	.	8b\)	.	.
=15	=15	=15	=15	=15	=15	=15	=15
!!!OMD:
!!!OMD-mod: Più mosso
!	!LO:TX:a:i:t=Piu mosso.:mod=	!	!	!	!LO:TX:a:i:t=Piu mosso, e grazioso:mod=grazioso	!	!
2C#\	8r	.	8r	.	(8.a\L	.	.
!	!LO:TX:b:i:t=leggiero.:mod=leggiero	!	!	!	!LO:TX:b:i:t=leggiero.:mod=leggiero	!	!
.	4A 4E\	.	4e^>/	.	.	.	.
.	.	.	.	.	16b\Jk	.	.
.	.	.	.	.	8cc#'\L)	.	.
.	8A 8E\	.	8e/	.	8a'\J	.	.
=16	=16	=16	=16	=16	=16	=16	=16
2D\	8r	.	8r	.	(8.b\L	.	.
.	4B 4A\	.	4f#^>/	.	.	.	.
.	.	.	.	.	16cc#\Jk	.	.
.	.	.	.	.	8dd'\L)	.	.
.	8B 8A\	.	8a 8f#/	.	8cc#'\J	.	.
=17	=17	=17	=17	=17	=17	=17	=17
4E\	8r	.	8r	.	8b'>/L	.	.
!	!	!	!	!	!LO:TX:b:i:t=rit.	!	!
.	8B 8A\	.	4e/	.	8a'>/J	.	.
!	!LO:TX:b:i:t=rit	!	!	!	!	!	!
4EE\	8r	.	.	.	4g#^>/	.	.
.	8B 8G# 8E\	.	8d/	.	.	.	.
=18	=18	=18	=18	=18	=18	=18	=18
2AA\	8r	.	8r	.	2a/	.	.
.	4A 4E\	.	(>4c#^>/	.	.	.	.
.	8c# 8A 8E\	.	8e/)	.	.	.	.
!!LO:LB:g=original
=19	=19	=19	=19	=19	=19	=19	=19
!!!OMD:
!!!OMD-mod: Maestoso
!	!LO:TX:a:i:t=Maestoso.:mod=	!	!	!	!LO:TX:a:i:t=Maestoso.:mod=	!	!LO:MO:mod=!null:null
!	!	!	!LO:TUP:b:problem=klamra łukowa	!	!LO:TUP:a:problem=klamra łukowa	!	!LO:DY:t=forte
2CC#\	2c# 2G# 2E\	f	(>6e/	.	(6ee\	.	f
.	.	.	6d/	.	6dd\	.	.
.	.	.	6e/	.	6ee\	.	.
=20	=20	=20	=20	=20	=20	=20	=20
2FF#\	2A#X 2F# 2C#\	.	4.f#/	.	4.ff#\	.	.
.	.	.	8c#/)	.	8cc#\)	.	.
=21	=21	=21	=21	=21	=21	=21	=21
!	!	!	!LO:TUP:b:problem=klamra łukowa	!	!LO:TUP:a:problem=klamra łukowa	!	!
2BBB\	4B 4F# 4D\	.	6d/	.	(6dd\	.	.
!	!	!	!	!	!	!	!LO:DY:t=f.
!	!	!	!	!	!	!	!LO:MO:null:mod=.
.	.	.	6c#/	.	6cc#\	.	f
.	4F# 4D\	.	.	.	.	.	.
.	.	.	6B/	.	6b\	.	.
=22	=22	=22	=22	=22	=22	=22	=22
*	*	*	*	*	*	*	*^
!	!	!	!	!	!	!	!	!LO:MO:mod=!null:null
!	!LO:MO:null:mod=!LO&colon;TX&colon;b&colon;i&colon;t=rit.	!	!	!	!LO:TX:b:i:t=rit:mod=rit.	!	!LO:DY:a	!LO:DY:a=2
!	!	!	!	!	!	!	!	!LO:MO:null:mod=.
2EE\	2G# 2E 2BB\	pp	4.e/	.	4.ee\	.	pp	pp
!	!LO:TX:b:i:t=rit.:mod=	!	!	!	!	!	!	!
.	.	.	8B/	.	8b\)	.	.	.
*	*	*	*	*	*	*	*v	*v
=23	=23	=23	=23	=23	=23	=23	=23
!!!OMD:
!!!OMD-mod: Più mosso
!	!	!	!	!	!LO:TX:a:i:t=Piu mosso. e grazioso.:mod=grazioso	!	!
2C#\	8r	.	8r	.	(8.a\L	.	.
!	!LO:TX:a:i:t=Piu mosso.:mod=	!	!	!	!	!	!
!	!LO:TX:b:i:t=leggiero.:mod=leggiero	!	!	!	!	!	!
.	4A 4E\	.	4e/	.	.	.	.
.	.	.	.	.	16b\Jk	.	.
.	.	.	.	.	8cc#\L)	.	.
.	8A 8E\	.	8e/	.	8a'\J	.	.
=24	=24	=24	=24	=24	=24	=24	=24
2D\	8r	.	8r	.	(8.b\L	.	.
.	4B 4A\	.	4fn^>/	.	.	.	.
.	.	.	.	.	16cc#\Jk	.	.
!	!	!	!	!	!LO:TX:b:t=ritar-dan do.:dur=3q:ext=cd:problem=text with extention lines	!	!
.	.	.	.	.	8dd\L)	.	.
.	8B 8A\	.	8a 8fn/	.	8cc#'\J	.	.
!!LO:LB:g=original
=25	=25	=25	=25	=25	=25	=25	=25
4E\	8r	.	8r	.	8b'/L	.	.
.	8B 8A\	.	4e/	.	8a'/J	.	.
4EE\	8r	.	.	.	4g#^>/	.	.
.	8B 8G# 8E\	.	8e 8d/	.	.	.	.
=26	=26	=26	=26	=26	=26	=26	=26
2AA 2AAA;\	8r	.	8r	.	2a;/	.	.
.	[4A 4E;\	.	[4e [4c#;/	.	.	.	.
.	8A] 8E\	.	8e] 8c#/]	.	.	.	.
=27||	=27||	=27||	=27||	=27||	=27||	=27||	=27||
!!!OMD:
!!!OMD-mod: Poco più lento
!	!LO:TX:a:i:t=Poco piu lento..:mod=	!LO:DY:a=2	!	!	!LO:TX:a:Bi:t=Poco piu lento.:mod=	!	!
[2GG# [2CC#\	2r	pp	2r	.	8r	.	.
.	.	.	.	.	(16ee\LL	.	p
.	.	.	.	.	16gg#\JJ	.	.
.	.	.	.	.	16dd#X\LL	.	.
.	.	.	.	.	16ff##\	.	.
.	.	.	.	.	16cc#\	.	.
.	.	.	.	.	16ee\JJ)	.	.
=28	=28	=28	=28	=28	=28	=28	=28
2GG#_ 2CC#\_	4G#^\	.	4r	.	N(>16ee\LL	.	.
.	.	.	.	.	16dd#X\	.	.
.	.	.	.	.	8qee/	.	.
.	.	.	.	.	16dd#\	.	.
.	.	.	.	.	16b#X\JJ)	.	.
!	!	!	!	!	!	!	!LO:DY:a=2
.	(16e\LL	.	[>4g#/N)	.	4r	.	sf
.	16d#X\	pp	.	.	.	.	.
.	(8qe/	.	.	.	.	.	.
.	16d#\)	.	.	.	.	.	.
.	16B#X\JJ)	.	.	.	.	.	.
=29	=29	=29	=29	=29	=29	=29	=29
*	*	*	*	*	*	*	*^
!	!	!	!LO:SIC:s=(8g#/L]	!	!	!	!LO:HP:a=2	!
8GG#] 8CC#\]	8G#\	.	8g#/L]	.	2r	.	<	.
!	!LO:MO:null:mod=!LO&colon;TX&colon;a&colon;i&colon;t=ritenuto	!LO:MO:mod=!null:null	!	!	!	!	!	!
!	!LO:TX:a:t=riten.	!LO:DY:t=forte	!LO:TX:a:i:t=ritenuto.:mod=ritenuto	!	!	!	!	!LO:DY:b=2:t=f.:rj
!	!LO:SIC:s=(8F##X\L	!	!	!	!	!	!	!
8r	8F##X\L	f	8f##X/	.	.	.	.	f
!	!	!LO:DY:a=2	!	!	!	!	!	!
4GG# 4GGG#\	8G#^\	sf	8g# 8d#X^>/	.	.	.	[	.
!	!LO:SIC:v:s=8D#J)	!	!LO:SIC:s=8d#/J)	!	!	!	!	!
.	8D\J	.	8d#/J	.	.	.	.	.
*	*	*	*	*	*	*	*v	*v
=30	=30	=30	=30	=30	=30	=30	=30
*	*	*^	*	*	*	*	*
!	!LO:MO:null:mod=!LO&colon;TX&colon;a&colon;t=a tempo	!LO:DY:a:t=p	!LO:DY:a=2	!	!	!LO:MO:mod=!LO&colon;TX&colon;a&colon;t=a tempo	!	!
!	!	!	!LO:MO:null:mod=.	!	!	!LO:TX:a:t=a Tempo.	!	!
[2GG# [2CC#\	4G# 4E\	p	p	8e/	.	8r	.	.
!	!	!	!	!	!	!	!	!LO:MO:null:mod=p
.	.	.	.	8r	.	(16ee\LL	.	.
!	!	!	!	!	!	!	!	!LO:MO:null:mod=.
.	.	.	.	.	.	16gg#\JJ	.	p
.	4r	.	.	4r	.	16dd#X\LL	.	.
.	.	.	.	.	.	16ff##X\	.	.
.	.	.	.	.	.	16cc#\	.	.
.	.	.	.	.	.	16ee\JJ)	.	.
*	*	*v	*v	*	*	*	*	*
!!LO:LB:g=original
=31	=31	=31	=31	=31	=31	=31	=31
2GG#_ 2CC#\_	4G#\	.	4r	.	(16ee\LL	.	.
.	.	.	.	.	16dd#X\	.	.
.	.	.	.	.	8qee/	.	.
.	.	.	.	.	16dd#\	.	.
.	.	.	.	.	16b#X\JJ)	.	.
!	!	!	!	!	!	!	!LO:DY:a=2
.	(16e\LL	.	[>4g#/	.	4r	.	f
.	16d#X\	.	.	.	.	.	.
.	(8qe/	.	.	.	.	.	.
.	16d#\)	.	.	.	.	.	.
.	16B#X\JJ	.	.	.	.	.	.
=32	=32	=32	=32	=32	=32	=32	=32
!	!	!	!	!	!	!	!LO:HP:a=2
8GG#] 8CC#\]	8G#\)	.	(>8g#/L]	.	2r	.	<
!	!	!LO:MO:mod=!null:null	!	!	!	!	!
!	!LO:TX:a:i:t=rit:mod=ritenuto	!LO:DY:t=forte.	!LO:TX:a:i:t=riten.:mod=ritenuto	!	!	!	!
8r	(8F##X\L	f	8f##X/	.	.	.	.
4GG# 4GGG#^\	8G#^\	.	8g# 8d#X^>/	.	.	.	[
!	!LO:SIC:v:s=8D#J)	!	!	!	!	!	!
.	8D\J)	.	8d#/J)	.	.	.	.
=33	=33	=33	=33	=33	=33	=33	=33
4CC#\	8G# 8E\	.	(4.e/	.	8r	.	.
.	.	.	.	.	(8qa/	.	.
!	!	!	!	!	!LO:TX:b:t=accele r ando.:dur=5e:ext=s:problem=text with extention lines	!	!
.	4c# 4G# 4E^\	.	.	.	(>16g#/LL)	.	.
.	.	.	.	.	16f#/JJ	.	.
8C#\L	.	.	.	.	16g#/LL	.	.
.	.	.	.	.	16a/	.	.
!	!LO:TX:b:t=acce le rando:dur=2qe:ext=s:problem=text with extention lines	!	!	!	!	!	!
8FF#\J	8c# 8A'\	.	8d#X/)	.	16b/	.	.
.	.	.	.	.	16a/JJ	.	.
=34	=34	=34	=34	=34	=34	=34	=34
8C#\L	8c#L 8G#'\	.	(8e/L	.	16g#/LL	.	.
.	.	.	.	.	16a/	.	.
8FF#^\	8c# 8A'\	.	8d#X/	.	16b/	.	.
.	.	.	.	.	16a/JJ	.	.
8C#\	8c# 8G#'\	.	8e/	.	16g#/LL	.	.
.	.	.	.	.	16a/	.	.
8FF#^\J	8c#J 8A'\	.	8d#/J)	.	16b/	.	.
.	.	.	.	.	16a/JJ)	.	.
=35	=35	=35	=35	=35	=35	=35	=35
4.C#\	8c# 8G#\	.	(4.e/	.	8r	.	.
.	.	.	.	.	(8qa/	.	.
.	4c# 4G# 4E^\	.	.	.	(>16g#/LL)	.	.
.	.	.	.	.	16f#/JJ	.	.
.	.	.	.	.	16g#/LL	.	.
!	!	!	!	!	!LO:TX:b:t=acce-le-rando molto:dur=11es:ext=ud:problem=text with extention lines	!	!
.	.	.	.	.	16a/	.	.
8BB\	8c# 8A'\	.	8d#X^>/	.	16b/	.	.
.	.	.	.	.	16a/JJ	.	.
=36	=36	=36	=36	=36	=36	=36	=36
8F#\L	8c#L 8G#'\	.	8e/L	.	16g#/LL	.	.
.	.	.	.	.	16a/	.	.
!	!LO:TX:b:t=accelerando molto:dur=4qe:ext=s:problem=text with extention lines	!	!	!	!	!	!
8BB^\	8c# 8A'\	.	8d#X^>/	.	16b/	.	.
.	.	.	.	.	16a/JJ	.	.
8F#\	8c# 8G#'\	.	8e/	.	16g#/LL	.	.
.	.	.	.	.	16a/	.	.
8BB^\J	8c#J 8A'\	.	8d#^>/J)	.	16b/	.	.
.	.	.	.	.	16a/JJ)	.	.
!!LO:LB:g=original
=37	=37	=37	=37	=37	=37	=37	=37
!	!	!LO:DY:a	!	!	!	!	!
[2BB [2BBB^\	[2c# [2A [2F#\	sf	4d#X^/	.	(16g#/LL	.	<
.	.	.	.	.	16a/	.	.
.	.	.	.	.	16f#/	.	.
.	.	.	.	.	16a/JJ	.	.
.	.	.	8r	.	16dd#X\LL	.	.
.	.	.	.	.	16cc#\	.	.
.	.	.	16r	.	16ff#\JJ	.	.
.	.	.	16a/	.	16r	.	.
=38	=38	=38	=38	=38	=38	=38	=38
2BB] 2BBB\]	2c#] 2A] 2F#\]	.	8r	.	16ff#\LL	.	.
.	.	.	.	.	16dd#X\	.	.
.	.	.	16r	.	16aa\JJ	.	.
.	.	.	16cc#\	.	16r	.	.
.	.	.	8r	.	16aa\LL	.	.
.	.	.	.	.	16ff#\	.	.
.	.	.	16r	.	16bb\JJ	.	[
.	.	.	16dd#X\	.	16r	.	.
=39	=39	=39	=39	=39	=39	=39	=39
!	!	!LO:MO:mod=!null:null	!	!	!	!	!
!	!	!LO:HP:t=cres.	!	!	!	!	!
4r	8f#L 8c#^\	<	8r	.	N(<<16aa\LL	.	.
!	!	!	!	!	!	!	!LO:MO:mod=!null:null
!	!	!	!	!	!	!	!LO:HP:t=cres.
.	.	.	.	.	16ff#\	.	<
.	8B'\J	.	16r	.	16bb\JJ	.	.
.	.	.	16dd#X\N)	.	16r	.	.
8F#'\L	4r	.	8r	.	N(<<16aa\LL	.	.
!	!	!	!	!	!LO:TX:a:t=(bis):mod=	!	!
.	.	.	.	.	16ff#\	.	.
8BB'\J	.	.	16r	.	16bb\JJ	.	>
!	!	!	!	!	!LO:TX:t=quasi<.....>:mod=	!	!
.	.	.	16dd#X\N)	.	16r	.	.
=40	=40	=40	=40	=40	=40	=40	=40
!	!LO:S:s=2:note:problem=note-level slur	!	!	!	!	!	!
4r	8F#L (8C#^\	.	8r	.	N(<<16aa\LL	.	.
.	.	.	.	.	16ff#\	.	.
.	8BB'\J)	.	16r	.	16bb\JJ	.	.
!	!	!	!	!	!LO:TX:b:i:t=ritenuto.:mod=ritenuto	!	!
.	.	.	16dd#X\N)	.	16r	.	.
!	!LO:MO:null:mod=!LO&colon;TX&colon;i&colon;b&colon;t=ritenuto	!	!	!	!	!	!
!	!	!	!	!	!	!	!
8FF#/L	4r	.	8r	.	N(<<16aa\LL	.	.
.	.	.	.	.	16ff#\	.	]
8BBB/J	.	.	16r	.	16bb\JJ)	.	.
.	.	.	16dd#X\N)	.	16r	.	.
=41	=41	=41	=41	=41	=41	=41	=41
*ped	*	*	*	*	*	*	*
!	!	!LO:MO:null:mod=.	!	!	!LO:TX:t=P:problem=tt. nr 41-42 oznaczone znakiem repetycji, adnotacja "(bis)"	!	!
4r	2r	sf	8ryy	.	N(y<<16aa\LLyy	.	.
!	!	!	!	!	!	!	!LO:MO:mod=!null:null
!	!	!	!	!	!	!	!LO:HP:t=cres.
.	.	.	.	.	16ff#\yy	.	<
.	.	.	16ryy	.	16bb\JJyy	.	.
.	.	.	16dd#X\N)yy	.	16ryy	.	.
[4BBB\	.	.	8ryy	.	N(y<<16aa\LLyy	.	.
.	.	.	.	.	16ff#\yy	.	.
.	.	.	16ryy	.	16bb\JJyy	.	>
.	.	.	16dd#X\N)yy	.	16ryy	.	.
=42	=42	=42	=42	=42	=42	=42	=42
!LO:TX:a:i:t=rit.:mod=ritenuto	!	!	!	!	!	!	!
2BBB\]	2r	.	8ryy	.	N(y<<16aa\LLyy	.	.
.	.	.	.	.	16ff#\yy	.	.
.	.	.	16ryy	.	16bb\JJyy	.	.
!	!	!	!	!	!LO:TX:b:i:t=ritenuto.:mod=ritenuto	!	!
.	.	.	16dd#X\N)yy	.	16ryy	.	.
.	.	.	8ryy	.	N(y<<16aa\LLyy	.	.
.	.	.	.	.	16ff#\yy	.	]
.	.	.	16ryy	.	16bb\JJyy	.	.
.	.	.	16dd#X\N)yy	.	16ryy	.	.
=43	=43	=43	=43	=43	=43	=43	=43
!	!LO:MO:null:mod=!LO&colon;TX&colon;a&colon;t=a tempo	!	!	!	!LO:MO:null:mod=!LO&colon;TX&colon;a&colon;t=a tempo	!	!
!	!	!	!LO:MO:mod=2r	!	!	!	!
[2BB [2EE\	2r	.	4r	.	8r	.	.
!	!	!	!	!	!LO:TX:b:i:t=A tempo.:mod=	!	!LO:DY:rj
.	.	.	.	.	(16gg#\LL	.	p
.	.	.	.	.	16bb\JJ	.	.
!	!	!	!LO:MO:null:mod=.	!	!	!	!
.	.	.	4r	.	16ff#\LL	.	.
.	.	.	.	.	16aa#X\	.	.
.	.	.	.	.	16ee\	.	.
.	.	.	.	.	16gg#\JJ)	.	.
=44	=44	=44	=44	=44	=44	=44	=44
!	!LO:TX:b:i:t=A tempo.:mod=	!LO:DY:a=2	!	!	!	!	!
2BB_ 2EE\_	4B^\	p	4r	.	N(>16gg#\LL	.	.
.	.	.	.	.	16ff#\	.	.
.	.	.	.	.	(8qgg#/	.	.
.	.	.	.	.	16ff#\)	.	.
.	.	.	.	.	16dd#X\JJ	.	.
.	(16g#\LL	.	[>4b^>/N)	.	4r	.	.
!	!	!LO:MO:null:mod=.	!	!	!	!	!
.	16f#\	p	.	.	.	.	.
.	(8qg#/	.	.	.	.	.	.
.	16f#\)	.	.	.	.	.	.
.	16d#X\JJ	.	.	.	.	.	.
!!LO:LB:g=original
=45	=45	=45	=45	=45	=45	=45	=45
!	!	!	!LO:TX:a:i:t=rit:mod=rit.	!	!	!	!LO:HP:a=2
8BB] 8EE\]	8B\)	.	(>8b/L]	.	2r	.	<
!	!LO:TX:b:i:t=rit.	!	!	!	!	!	!
8r	(8A#X\L	.	8a#X/	.	.	.	.
!	!	!LO:MO:mod=!null:null	!	!	!	!	!
!	!	!LO:DY:t=forte	!	!	!	!	!
4BB 4BBB^\	8B^\	f	8b 8f#^>/	.	.	.	[
.	8F#\J)	.	8f#/J)	.	.	.	.
=46	=46	=46	=46	=46	=46	=46	=46
!	!LO:MO:null:mod=!LO&colon;TX&colon;a&colon;t=a tempo	!	!	!	!LO:MO:null:mod=!LO&colon;TX&colon;a&colon;t=a tempo	!	!
!	!	!	!	!	!	!	!
[2BB [2EE\	4B 4G#\	p	4g# 4e/	.	8r	.	.
!	!	!	!	!	!LO:TX:b:t=a Temp.:mod=	!	!
.	.	.	.	.	(16gg#\LL	.	.
.	.	.	.	.	16bb\JJ	.	.
!	!LO:TX:b:t=a tempo.:mod=	!	!	!	!	!	!
.	4r	.	4r	.	16ff#\LL	.	.
.	.	.	.	.	16aa#X\	.	.
.	.	.	.	.	16ee\	.	.
.	.	.	.	.	16gg#\JJ)	.	.
=47	=47	=47	=47	=47	=47	=47	=47
2BB_ 2EE\_	4B\	.	4r	.	(16gg#\LL	.	.
.	.	.	.	.	16ff#\	.	.
.	.	.	.	.	(8qgg#/	.	.
.	.	.	.	.	16ff#\)	.	.
.	.	.	.	.	16dd#X\JJ)	.	.
.	(16g#^\LL	.	[>4b^>/	.	4r	.	.
.	16f#\	.	.	.	.	.	.
.	(>8qg#/	.	.	.	.	.	.
.	16f#\)	.	.	.	.	.	.
.	16d#X\JJ	.	.	.	.	.	.
=48	=48	=48	=48	=48	=48	=48	=48
!	!	!	!	!	!	!	!LO:HP:a=2
8BB] 8EE\]	8B\)	.	(>8b/L]	.	2r	.	<
8r	(8A#X\L	.	8a#X/	.	.	.	[
!	!	!LO:MO:mod=!null:null	!	!	!	!	!
!	!LO:TX:b:i:t=rit:mod=rit.	!LO:DY:t=forte	!LO:TX:a:i:t=rit:mod=rit.	!	!	!	!
4BB 4BBB\	8B^\	f	8b 8f#^>/	.	.	.	.
.	8F#\J)	.	8f#/J)	.	.	.	.
=49	=49	=49	=49	=49	=49	=49	=49
4r	8B 8G#\	.	4g# 4e/	.	8r	.	.
!	!LO:TX:b:t=molto acceleran:mod=molto accelerando:dur=6e:ext=s:problem=text with extention lines	!	!	!	!	!	!
.	.	.	.	.	(8qcc#/	.	<
.	4B 4G# 4E^\	.	.	.	(>16b/LL)	.	.
.	.	.	.	.	16a#X/JJ	.	.
8E'\L	.	.	8g#L 8e/	.	16b/LL	.	.
.	.	.	.	.	16cc#/	.	.
!	!	!	!	!	!LO:TX:b:t=molto accele:mod=molto accelerando:dur=5e:ext=s:problem=text with extention lines	!	!
8AA'\J	8c# 8A'\	.	8aJ 8e/	.	16dd#X/	.	.
.	.	.	.	.	16cc#/JJ	.	.
=50	=50	=50	=50	=50	=50	=50	=50
8E'\L	8BL 8G#'\	.	(>8g#L 8e/	.	16b/LL	.	.
.	.	.	.	.	16cc#/	.	.
8AA'\	8c# 8A'\	p	8aJ 8e/)	.	16dd#X/	.	[
.	.	.	.	.	16cc#/JJ	.	.
8E'\	8B 8G#'\	.	(>8g#L 8e/	.	16b/LL	.	.
.	.	.	.	.	16cc#/	.	.
8AA'\J	8c#J 8A'\	.	8aJ 8e/)	.	16dd#X/	.	.
.	.	.	.	.	16cc#/JJ	.	.
!!LO:PB:g=original
=51	=51	=51	=51	=51	=51	=51	=51
4EE\	8B 8G#\	.	4g# 4e^>/	.	8b/)	.	.
.	.	.	.	.	(8qcc#/	.	.
.	4B 4G# 4E^\	.	.	.	(>16b/LL)	.	.
.	.	.	.	.	16a#X/JJ	.	.
8E'\L	.	.	8g#L 8e'/	.	16b\LL	.	.
!	!	!	!	!	!LO:TX:b:t=accelerando molto e crescendo:problem=dynamics with extention lines	!	!LO:HP:t=accelerando molto e crescendo
.	.	.	.	.	16cc#\	.	<
8AA'\J	8c# 8A'\	.	8g#J 8e'/	.	16ee\	.	.
.	.	.	.	.	16cc#\JJ	.	.
=52	=52	=52	=52	=52	=52	=52	=52
8E'\L	8BL 8G#'\	.	8g#L 8e'/	.	16b\LL	.	.
.	.	.	.	.	16cc#\	.	.
!	!LO:TX:b:t=accelerando.:mod=accelerando molto e crescendo:dur=4q:ext=ud:problem=text with extention lines	!	!	!	!	!	!
8AA'\	8c# 8A'\	.	8a 8e'/	.	16ee\	.	.
.	.	.	.	.	16cc#\JJ	.	.
8E'\	8B 8G#'\	.	8g# 8e'/	.	16b\LL	.	.
.	.	.	.	.	16cc#\	.	.
8AA'\J	8c#J 8A'\	.	8aJ 8e'/	.	16ee\	.	.
.	.	.	.	.	16cc#\JJ)	.	.
=53	=53	=53	=53	=53	=53	=53	=53
[<2CC#\	[2c# [<2G# 2C#\	.	4r	.	(16b\LL	.	.
.	.	.	.	.	16cc#\	.	.
.	.	.	.	.	16ee#X\	.	.
.	.	.	.	.	16cc#\JJ	.	.
.	.	.	16e#X/LL	.	4r	.	.
.	.	.	16g#/	.	.	.	.
.	.	.	16b/	.	.	.	.
.	.	.	16cc#/JJ	.	.	.	.
=54	=54	=54	=54	=54	=54	=54	=54
2CC#\]	2c#] 2G#\]	.	4r	.	16ee#X\LL	.	.
.	.	.	.	.	16gg#\	.	.
.	.	.	.	.	16ee#\	.	.
.	.	.	.	.	16cc#\JJ	.	.
.	.	.	16b\LL	.	4r	.	.
.	.	.	16cc#\	.	.	.	.
.	.	.	16ee#X\	.	.	.	.
.	.	.	16gg#\JJ	.	.	.	.
=55	=55	=55	=55	=55	=55	=55	=55
!	!LO:S:s=2:note:problem=note-level slur	!	!	!	!	!	!
!	!LO:TX:b:i:t=staccato.:mod=staccato	!	!	!	!	!	!
4r	8g#L (8d^\	.	8r	.	N(<<16bb\LL	.	.
.	.	.	.	.	16gg#\	.	.
.	8c#\J)	.	16r	.	16ccc#\JJ	.	.
.	.	.	16ee#X\N)	.	16r	.	.
8G#'\L	4r	.	8r	.	N(<<16bb\LL	.	.
.	.	.	.	.	16gg#\	.	.
8C#'\J	.	.	16r	.	16ccc#\JJ	.	.
.	.	.	16ee#\N)	.	16r	.	[[
=56	=56	=56	=56	=56	=56	=56	=56
!	!LO:S:s=2:note:problem=note-level slur	!	!	!	!	!	!
4r	(8G#L (8D^\	.	8r	.	N(<<16bb\LL	.	.
.	.	.	.	.	16gg#\	.	.
.	8C#'\J))	.	16r	.	16ccc#\JJ	.	.
.	.	.	16ee#X\N)	.	16r	.	.
8GG#'\L	4r	.	8r	.	N(<<16bb\LL	.	.
.	.	.	.	.	16gg#\	.	.
8CC#'\J	.	.	16r	.	16ccc#\JJ	.	.
.	.	.	16ee#\N)	.	16r	.	.
!!LO:LB:g=original
=57	=57	=57	=57	=57	=57	=57	=57
!	!	!	!	!	!LO:SIC:s=N(<<16bb\LL	!	!
4r	2r	.	8r	.	16bb\LL	.	<
.	.	.	.	.	16gg#\	.	.
.	.	.	16r	.	16ccc#\JJ	.	.
!	!	!	!LO:SIC:s=16ee#X\N)	!	!	!	!
.	.	.	16ee#X\	.	16r	.	.
!	!	!LO:DY:a=2:t=sf.	!	!	!LO:SIC:s=N(<<16bb\LL	!	!
[4CC#\	.	sf	8r	.	16bb\LL	.	.
.	.	.	.	.	16gg#\	.	.
.	.	.	16r	.	16ccc#\JJ	.	[
!	!	!	!LO:SIC:s=16ee#\N)	!	!	!	!
.	.	.	16ee#X\	.	16r	.	.
=58	=58	=58	=58	=58	=58	=58	=58
!LO:TX:a:i:t=rit.:mod=ritardando	!	!	!	!	!LO:SIC:s=N(<<16bb\LL	!	!
2CC#\]	2r	.	8r	.	16bb\LL	.	>
.	.	.	.	.	16gg#\	.	.
.	.	.	16r	.	16ccc#\JJ	.	.
!	!	!	!LO:SIC:s=16een\N)	!	!LO:TX:b:i:t=ritardando	!	!
.	.	.	16een\	.	16r	.	.
!	!	!	!	!	!LO:SIC:s=N(<<16bb\LL	!	!
.	.	.	8r	.	16bb\LL	.	.
.	.	.	.	.	16gg#\	.	]
.	.	.	16r	.	16ccc#\JJ)	.	.
!	!	!	!LO:SIC:s=16ee\N)	!	!	!	!
.	.	.	16ee\	.	16r	.	.
=59	=59	=59	=59	=59	=59	=59	=59
!!!OMD:
!!!OMD-mod: Animato
*	*	*^	*	*	*	*	*
!	!	!	!LO:MO:mod=!null:null	!	!	!	!	!LO:MO:mod=!null:null
!	!LO:TX:a:B:t=Animato.:mod=	!LO:HP:b=1	!LO:DY:t=mf.	!	!	!LO:TX:a:B:t=Animato.:mod=	!	!LO:DY:t=mf.
2FF#\	(4A\	>	mf	8a'>/L	.	(8.ccc#\L	.	mf
.	.	.	.	8g#'>/	.	.	.	.
.	.	.	.	.	.	16bb\K	.	.
.	4C#\)	]	]	8a'>/	.	8aa\)	.	.
.	.	.	.	8c#'>/J	.	8gg#'\J	.	.
*	*	*v	*v	*	*	*	*	*
=60	=60	=60	=60	=60	=60	=60	=60
2FF#\	(4A\	>	8a'>/L	.	(8ff#\L	.	.
.	.	.	8g#'>/	.	8cc#\J	.	.
.	4C#\)	]	8a'>/	.	4ff#^\)	.	.
.	.	.	8c#'>/J	.	.	.	.
=61	=61	=61	=61	=61	=61	=61	=61
.	.	.	.	.	(16qqff#/LL	.	.
.	.	.	.	.	16qqgg#/JJ	.	.
2FF#\	(4B\	>	8b'\L	.	(8.ff#L 8.dd\)	.	.
.	.	.	8cc#'\	.	.	.	.
.	.	.	.	.	16ee#X\Jk	.	.
.	4D\)	]	8b'\	.	8ff#L 8dd\	.	.
.	.	.	8d\J	.	8gg#\J)	.	.
=62	=62	=62	=62	=62	=62	=62	=62
2FF#\	(4A\	>	8a'>/L	.	2aa 2cc#\	.	.
.	.	.	8g#'>/	.	.	.	.
.	4C#\)	]	8a'>/	.	.	.	.
.	.	.	8c#'>/J	.	.	.	.
!!LO:LB:g=original
=63	=63	=63	=63	=63	=63	=63	=63
!	!	!	!	!	!	!	!LO:MO:null:mod=!LO&colon;DY&colon;ed=brack
!	!	!	!	!	!	!	!
!	!	!LO:MO:null:mod=pp	!	!	!	!	!LO:MO:null:mod=pp
2AA 2AAA\	8c#L 8E'\	.	(8.cc#\L	.	(8.ccc#\L	.	.
!	!LO:TX:b:i:t=leggiero.:mod=leggiero	!LO:DY:a:rj	!	!	!	!	!
!	!	!LO:MO:null:mod=.	!	!	!	!	!
.	8B#X'\	pp	.	.	.	.	.
.	.	.	16b\K	.	16bb\K	.	.
.	8c#'\	.	8a\)	.	8aa\)	.	.
.	8E'\J	.	8g#'\J	.	8gg#'\J	.	.
=64	=64	=64	=64	=64	=64	=64	=64
2AA 2AAA\	8dL 8F#'\	.	4f#/	.	8ff#'\L	.	.
.	8c#'\	.	.	.	(8a\J	.	.
.	8d'\	.	4f#/	.	4ff#\)	.	.
.	8F#'\J	.	.	.	.	.	.
=65	=65	=65	=65	=65	=65	=65	=65
.	.	.	(16qqf#/LL	.	(16qqff#/LL	.	.
.	.	.	16qqg#/JJ	.	16qqgg#/JJ	.	.
2AA 2AAA\	8dL 8E'\	.	(8.f#/L)	.	(8.ff#L 8.dd\)	.	.
.	8c#'\	.	.	.	.	.	.
.	.	.	16e#X/K	.	16ee#X\K	.	.
.	8d'\	.	8f#'/)	.	8ff#'\)	.	.
.	8E'\J	.	8g#'/J	.	8gg#'\J	.	.
=66	=66	=66	=66	=66	=66	=66	=66
*	*^	*	*	*	*	*	*
!	!LO:TX:b:i:t=ritenuto poco.:mod=poco ritenuto	!	!	!	!	!LO:TX:b:i:t=poco ritenuto	!	!
4AA 4AAA\	(8c#/L	8c# 8E\L	.	8a'/L	.	8aa'\L	.	.
.	8B/J	8B\J	.	8b'/J	.	8bb'\J	.	.
4C# 4CC#\	8A/L	4E#X\	.	4cc#^\	.	4ccc#^\	.	.
.	8G#/J)	.	.	.	.	.	.	.
*	*v	*v	*	*	*	*	*	*
=67	=67	=67	=67	=67	=67	=67	=67
!	!	!LO:MO:null:mod=!LO&colon;DY&colon;ed=brack	!	!	!	!	!
!	!LO:MO:mod=!LO&colon;TX&colon;a&colon;t=a tempo	!	!	!	!LO:MO:mod=!LO&colon;TX&colon;a&colon;t=a tempo	!	!
!	!LO:TX:a:t=A Tempo.	!LO:MO:null:mod=p	!	!	!LO:TX:a:i:t=A Tempo.	!	!
[2C# [2FF#\	4A 4F#\	.	2r	.	8r	.	.
.	.	.	.	.	(16aa\LL	.	p
.	.	.	.	.	16ccc#\JJ	.	.
.	4r	.	.	.	16gg#\LL	.	.
.	.	.	.	.	16bb#X\	.	.
.	.	.	.	.	16ff#\	.	.
.	.	.	.	.	16aa\JJ)	.	.
*	*clefG2	*	*	*	*	*	*
=68	=68	=68	=68	=68	=68	=68	=68
2C#_ 2FF#\_	4c#/	<	4r	.	N(<(16aa\LL	.	.
.	.	.	.	.	16gg#\	.	.
.	.	.	.	.	(>8qaa/	.	.
.	.	.	.	.	16gg#\))	.	.
.	.	.	.	.	16ee#X\JJ	.	.
!	!	!	!LO:TX:a:t=P:problem=brak początku ligatury	!	!	!	!LO:DY:a=2
.	(<16a^>/LL	.	[4cc#\N)	.	4r	.	sf
.	16g#/	[	.	.	.	.	.
.	(8qa/	.	.	.	.	.	.
.	16g#/)	.	.	.	.	.	.
.	16e#X/JJ	.	.	.	.	.	.
!!LO:LB:g=original
=69	=69	=69	=69	=69	=69	=69	=69
*	*clefF4	*	*	*	*	*	*
!	!LO:TX:a:t=P:problem=koniec łuku na górze	!	!	!	!	!	!
8C#] 8FF#\]	8c#\)	.	8cc#\L]	.	2r	.	.
!	!	!	!	!	!LO:TX:b:i:t=ritar.:mod=rit.	!	!
8r	(8B#X\L	<	(8b#X\	.	.	.	f
!	!LO:TX:b:i:t=rit:mod=rit.	!LO:DY:a	!	!	!	!	!
4C# 4CC#^\	8c#^\	[ f	8cc# 8g#^\	.	.	.	.
.	8G#\J)	.	8g#\J)	.	.	.	.
=70	=70	=70	=70	=70	=70	=70	=70
!	!LO:TX:b:t=a tempo.	!	!	!	!LO:TX:b:t=A tempo.	!	!
[2C# [2FF#\	4A\	.	4a\	.	8r	.	.
.	.	.	.	.	(16aa\LL	.	.
.	.	.	.	.	16ccc#\JJ	.	.
.	4r	.	4r	.	16gg#\LL	.	.
.	.	.	.	.	16bb#X\	.	.
.	.	.	.	.	16ff#\	.	.
.	.	.	.	.	16aa\JJ)	.	.
*	*clefG2	*	*	*	*	*	*
=71	=71	=71	=71	=71	=71	=71	=71
2C#_ 2FF#\_	4c#/	<	4r	.	N(<(16aa\LL	.	.
.	.	.	.	.	16gg#\	.	.
.	.	.	.	.	(>8qaa/	.	.
.	.	.	.	.	16gg#\)	.	.
.	.	.	.	.	16ee#X\JJ)	.	.
!	!	!	!	!	!	!	!LO:DY:a=2
.	(<16a^>/LL	.	[4cc#\N)	.	4r	.	sf
.	16g#/	[	.	.	.	.	.
.	(8qa/	.	.	.	.	.	.
.	16g#/)	.	.	.	.	.	.
.	16e#X/JJ	.	.	.	.	.	.
=72	=72	=72	=72	=72	=72	=72	=72
*	*clefF4	*	*	*	*	*	*
!	!LO:TX:b:i:t=ritenuto.:mod=rit.	!	!	!	!	!	!
8C#] 8FF#\]	8c#\)	.	(8cc#\L]	.	2r	.	.
!	!	!	!	!	!	!	!LO:MO:mod=!null:null
!	!	!	!	!	!LO:TX:b:i:t=ritar:mod=rit.	!	!LO:DY:t=forte
8r	(8B#X\L	.	8b#X\	.	.	.	f
4C# 4CC#\	8c#^\	f	8cc# 8g#^\	.	.	.	.
.	8G#\J)	.	8g#\J)	.	.	.	.
=73	=73	=73	=73	=73	=73	=73	=73
4FF#\	8A\	p	4a 4f#\	.	8r	.	.
!	!LO:TX:b:t=accelerando:dur=2q:ext=s:problem=text with extention lines	!	!	!	!	!	!
.	.	.	.	.	(16qdd/	.	.
.	4c# 4A^\	.	.	.	(16cc#\LL)	.	.
!	!	!LO:MO:null:mod=<	!	!	!	!	!
.	.	.	.	.	16b#X\JJ	.	<
!	!	!	!	!	!LO:TX:b:i:t=accelerando	!	!
8F#'\L	.	.	8aL 8f#'/	.	16cc#\LL	.	.
.	.	.	.	.	16dd\	.	.
8BB'\J	8d 8G#'\	.	8g#J 8f#'/	.	16ee\	.	.
.	.	.	.	.	16dd\JJ	.	.
=74	=74	=74	=74	=74	=74	=74	=74
!	!	!LO:MO:null:mod=.	!	!	!	!	!
8F#'\L	8c#L 8A'\	<	8aL 8f#'/	.	16cc#\LL	.	.
.	.	.	.	.	16dd\	.	.
8BB'\	8d 8G#'\	.	8g# 8f#'/	.	16ee\	.	.
.	.	.	.	.	16dd\JJ	.	.
8F#'\	8c# 8A'\	.	8a 8f#'/	.	16cc#\LL	.	.
!	!	!	!	!	!	!	!LO:MO:null:mod=.
.	.	.	.	.	16dd\	.	[
!	!	!	!	!	!	!	!LO:MO:null:mod=[
8BB^\J	8dJ 8G#'\	[	8g#J 8f#'/	.	16ee\	.	.
.	.	.	.	.	16dd\JJ)	.	.
!!LO:LB:g=original
=75	=75	=75	=75	=75	=75	=75	=75
4FF#\	8c#L 8A'\	.	4a 4f#/	.	8cc#\L	.	.
.	.	.	.	.	8qee/	.	.
.	8c#J 8A'\	.	.	.	(16dd\L	.	<
.	.	.	.	.	16cc#\JJ	.	.
8F#'\L	8dL 8G#'\	.	8g#L 8f#'/	.	16b#X\LL	.	.
.	.	.	.	.	16cc#\	.	.
8FF#'\J	8c#J 8A'\	.	8aJ 8f#'/	.	16ff#\	.	.
.	.	.	.	.	16cc#\JJ	.	.
=76	=76	=76	=76	=76	=76	=76	=76
8F#'\L	8dL 8G#'\	.	8g#L 8f#'/	.	16b#X\LL	.	.
.	.	.	.	.	16cc#\	.	[
8FF#'\	8c# 8A'\	.	8a 8f#'/	.	16ff#\	.	.
.	.	.	.	.	16cc#\JJ	.	.
!	!LO:TX:b:i:t=rit:mod=rit.	!	!	!	!	!	!
8F#'\	8d 8G#'\	.	8g# 8f#'/	.	16b#\LL	.	.
!	!	!	!	!	!LO:TX:b:i:t=rit.	!	!
.	.	.	.	.	16cc#\	.	.
8FF#'\J	8c#J 8A'\	.	8aJ 8f#'/	.	16ff#\	.	.
.	.	.	.	.	16cc#\JJ)	.	.
=77	=77	=77	=77	=77	=77	=77	=77
!!!OMD:
!!!OMD-mod: Animato
!	!LO:TX:a:t=animato.:mod=	!LO:DY:b=1	!	!	!LO:TX:a:t=Animato.:mod=	!	!LO:MO:null:mod=mf
2D 2DD\	8f#L 8A'\	pp	4a/	.	(8.aa^\L	.	.
!	!LO:TX:b:i:t=leggiero	!	!	!	!	!	!
.	8e'\	.	.	.	.	.	.
!	!	!	!	!	!	!	!LO:DY:rj:t=mf.
!	!	!	!	!	!	!	!LO:MO:null:mod=.
.	.	.	.	.	16gg#\Jk	.	mf
.	8f#'\	.	4a/	.	8ff#'\L)	.	.
.	8A'\J	.	.	.	8ee'\J	.	.
=78	=78	=78	=78	=78	=78	=78	=78
2D 2DD\	8f#L 8A'\	.	4r	.	8dd'\L	.	.
.	8e'\	.	.	.	(8a\J	.	.
.	8f#'\	.	4a/	.	4dd^\)	.	.
.	8A'\J	.	.	.	.	.	.
=79	=79	=79	=79	=79	=79	=79	=79
.	.	.	.	.	(16qqdd/LL	.	.
.	.	.	.	.	16qqee/JJ	.	.
2D 2DD\	8gnL 8B-X'\	.	4r	.	(8.dd\L)	.	.
.	8f#'\	.	.	.	.	.	.
.	.	.	.	.	16cc#\Jk)	.	.
.	8g'\	.	4b-X^>/	.	8dd'\L	.	.
.	8B-'\J	.	.	.	8ee'\J	.	.
=80	=80	=80	=80	=80	=80	=80	=80
4D 4DD\	8f#L 8A'\	.	8a/L	.	2ff#^\	.	.
!	!LO:TX:b:i:t=rit:mod=rit.	!	!LO:TX:a:i:t=rit.	!	!	!	!
.	8e'\	.	8gn/J	.	.	.	.
4F# 4FF#\	8d 8A#X'\	.	4f#^>/	.	.	.	.
.	8c#'\J	.	.	.	.	.	.
!!LO:LB:g=original
=81	=81	=81	=81	=81	=81	=81	=81
!	!LO:MO:mod=!LO&colon;TX&colon;a&colon;t=a tempo	!	!	!	!LO:MO:null:mod=!LO&colon;TX&colon;a&colon;t=a tempo	!	!LO:MO:mod=!null:null
!	!LO:TX:b:t=a tempo.	!	!	!	!	!	!LO:DY:t=mf.
2BB 2BBB\	8dL 8B'\	.	4f#/	.	(8.ff#\L	.	mf
.	8c#'\	.	.	.	.	.	.
.	.	.	.	.	16ee\K	.	.
.	8d'\	.	4f#^>/	.	8dd'\)	.	.
.	8F#'\J	.	.	.	8cc#'\J	.	.
=82	=82	=82	=82	=82	=82	=82	=82
.	.	.	.	.	(16qqb/LL	.	.
.	.	.	.	.	16qqcc#/JJ	.	.
2BB 2BBB\	8dL 8B'\	.	4r	.	8b'>/L)	.	.
.	8c#'\	.	.	.	(8f#/J	.	.
.	8d'\	.	4f#/	.	4b^>/)	.	.
.	8F#'\J	.	.	.	.	.	.
=83	=83	=83	=83	=83	=83	=83	=83
.	.	.	.	.	(16qqb/LL	.	.
.	.	.	.	.	16qqcc#/JJ	.	.
2BB 2BBB\	8eL 8Gn'\	.	4gn/	.	(8.b\L)	.	.
.	8f#'\	.	.	.	.	.	.
.	.	.	.	.	16a#X\Jk	.	.
.	8e'\	.	4g/	.	8b\L)	.	.
.	8G'\J	.	.	.	8cc#'\J	.	.
=84	=84	=84	=84	=84	=84	=84	=84
2BB 2BBB\	8dL 8B\	.	2f#^>/	.	2dd^\	.	.
.	8c#\	.	.	.	.	.	.
.	8d\	.	.	.	.	.	.
.	8F#\J	.	.	.	.	.	.
=85	=85	=85	=85	=85	=85	=85	=85
*^	*	*	*	*	*	*	*
!	!	!	!	!	!	!	!	!LO:MO:mod=!null:null
!	!	!	!	!	!	!	!	!LO:DY:t=f.
4BB/	4BB 4BBB\	4F#\	.	8aL 8f#'/	.	(8.b\L	.	f
.	.	.	.	8B'/J	.	.	.	.
.	.	.	.	.	.	16cc#\Jk	.	.
8BB\L	4ryy	4r	.	4a 4f#/	.	8dd'\L)	.	<
8BBB\J	.	.	.	.	.	8cc#'\J	.	.
*v	*v	*	*	*	*	*	*	*
=86	=86	=86	=86	=86	=86	=86	=86
4r	8AL 8F#'\	.	2a 2f#^>/	.	(16b\LL	.	.
.	.	.	.	.	16cc#\	.	.
.	8BB'\J	.	.	.	16dd\	.	.
.	.	.	.	.	16cc#\JJ	.	[
8BB'\L	4r	.	.	.	16b\LL	.	.
.	.	.	.	.	16cc#\	.	.
8BBB'\J	.	.	.	.	16dd\	.	.
.	.	.	.	.	16cc#\JJ)	.	.
!!LO:PB:g=original
=87	=87	=87	=87	=87	=87	=87	=87
4r	8dL 8G#\	.	8r	.	(8.b\L	.	.
!	!	!LO:HP:ed=brack	!	!	!	!	!
!	!	!LO:MO:null:mod=<	!	!	!	!	!
.	8E\J	.	4g# 4e/	.	.	.	.
!	!	!	!	!	!	!	!LO:MO:mod=!null:null
!	!	!	!	!	!	!	!LO:HP:t=cres
.	.	.	.	.	16cc#'\Jk)	.	<
8BB\L	4r	.	.	.	8dd'\L	.	.
8EE\J	.	.	8g# 8e/	.	8cc#'\J	.	.
=88	=88	=88	=88	=88	=88	=88	=88
!	!	!	!	!	!	!	!LO:MO:null:mod=.
4r	8dL 8G#\	.	8r	.	(16b\LL	.	<
.	.	.	.	.	16cc#\	.	.
.	8E\J	.	4g# 4e/	.	16dd\	.	.
.	.	.	.	.	16cc#\JJ	.	.
8BB\L	4r	.	.	.	16b\LL	.	.
.	.	.	.	.	16cc#\	.	.
8EE\J	.	.	8g# 8e/	.	16dd\	.	.
!	!	!LO:MO:null:mod=[	!	!	!	!	!
.	.	.	.	.	16b\JJ)	.	[
=89||	=89||	=89||	=89||	=89||	=89||	=89||	=89||
!!!OMD:
!!!OMD-mod: Tempo I°
!	!LO:TX:a:t=Tempo 1°:mod=	!LO:MO:null:mod=f	!	!	!LO:TX:a:i:t=Tempo 1°:mod=	!	!LO:DY:a
4.AAA\	[<2ETT\	.	8r	.	(8.a\L	.	f
!	!	!LO:DY:t=f.	!	!	!	!	!
!	!	!LO:MO:null:mod=.	!	!	!	!	!
.	.	f	4e 4c#/	.	.	.	.
.	.	.	.	.	16b\Jk	.	.
.	.	.	.	.	8cc#\L	.	.
8EE^\	.	.	8e 8c#/	.	8a\J)	.	.
=90	=90	=90	=90	=90	=90	=90	=90
4.AAA\	2ETTT\_<	.	8r	.	(8.b\L	.	.
.	.	.	4g# 4e 4d/	.	.	.	.
.	.	.	.	.	16cc#\Jk	.	.
.	.	.	.	.	8dd\L	.	.
8EE^\	.	.	8g# 8e 8d/	.	8b\J)	.	.
=91	=91	=91	=91	=91	=91	=91	=91
4.AAA\	2ETTT\_<	.	8r	.	8b'>/L	.	.
.	.	.	4e 4d/	.	8a'>/J	.	.
.	.	.	.	.	4g#^>/	.	.
!	!	!	!LO:MO:mod=!null:null	!	!	!	!
!	!	!	!LO:N:vis=4	!	!	!	!
8EE^\	.	.	8e 8d/	.	.	.	.
=92	=92	=92	=92	=92	=92	=92	=92
!	!	!	!LO:MO:null:mod=*ped	!	!LO:MO:null:mod=.	!	!
*	*	*	*	*	*ped	*	*
4AAA\	2ETTT\]	.	8r	.	4a^>/	.	.
.	.	.	4e 4c#/	.	.	.	.
4AA\	.	.	.	.	N(32eee\LLL	.	.
!	!	!	!	!	!	!	!LO:MO:null:mod=.
.	.	.	.	.	32ccc#\	.	f
.	.	.	.	.	32aa\	.	.
.	.	.	.	.	32ff#\JJJ	.	.
!	!	!	!LO:TUP:a:problem=klamra łukowa	!	!	!	!
.	.	.	40ee\LLL	.	8r	.	.
.	.	.	40cc#\	.	.	.	.
.	.	.	40a\	.	.	.	.
.	.	.	40f#\	.	.	.	.
.	.	.	40e\JJJN)	.	.	.	.
!!LO:LB:g=original
=93	=93	=93	=93	=93	=93	=93	=93
4.AAA\	[<2E\	.	8r	.	(8.a\L	.	.
.	.	.	4e 4c#/	.	.	.	.
.	.	.	.	.	16b\Jk	.	.
.	.	.	.	.	8cc#\L)	.	.
8EE^\	.	.	8e 8c#/	.	8a'\J	.	.
=94	=94	=94	=94	=94	=94	=94	=94
4.AAA\	2E\_<	.	8r	.	(16b\LL	.	.
.	.	.	.	.	16ee\	.	.
.	.	.	4g# 4e 4d/	.	16b\	.	.
.	.	.	.	.	16cc#\JJ	.	.
.	.	.	.	.	8dd\L)	.	.
8EE^\	.	.	8g# 8e 8d/	.	8cc#'\J	.	.
=95	=95	=95	=95	=95	=95	=95	=95
4.AAA\	2E\_<	.	8r	.	8b/L	.	.
.	.	.	4e 4d/	.	8a/J	.	.
.	.	.	.	.	4g#^>/	.	.
8EE^\	.	.	8e 8d/	.	.	.	.
=96	=96	=96	=96	=96	=96	=96	=96
4AAA\	2E\]	.	8r	.	4a^>/	.	.
.	.	.	4e 4c#/	.	.	.	.
4AA\	.	.	.	.	N(32aaa\LLL	.	.
!	!	!	!	!	!	!	!LO:DY:t=f.
!	!	!	!	!	!	!	!LO:MO:null:mod=.
.	.	.	.	.	32eee\	.	f
.	.	.	.	.	32ccc#\	.	.
.	.	.	.	.	32aa\JJJ	.	.
!	!	!	!LO:TUP:a:problem=klamra łukowa	!	!	!	!
.	.	.	40ee\LLL	.	8r	.	.
.	.	.	40cc#\	.	.	.	.
.	.	.	40a\	.	.	.	.
.	.	.	40f#\	.	.	.	.
.	.	.	40e\JJJN)	.	.	.	.
=97	=97	=97	=97	=97	=97	=97	=97
!!!OMD:
!!!OMD-mod: Maestoso
*	*	*	*ped	*	*	*	*
!	!	!	!	!	!LO:TX:a:i:t=Maestoso.:mod=	!	!
!	!LO:TUP:a:problem=klamra łukowa	!LO:MO:null:mod=ff	!LO:TUP:a:problem=klamra łukowa	!	!LO:TUP:a:problem=klamra łukowa	!	!LO:MO:null:mod=ff
2C#:: 2GG#:: 2CC#::\	(6e:: 6c#:: 6G#:: 6E::\	.	(6ee\	.	(6eee\	.	.
!	!LO:TX:b:i:t=Maestoso.:mod=	!LO:DY:rj	!	!	!	!	!LO:DY:rj
!	!	!LO:MO:null:mod=.	!	!	!	!	!LO:MO:null:mod=.
.	6d\	ff	6dd\	.	6ddd\	.	ff
.	6e\	.	6ee\	.	6eee\	.	.
*	*	*	*Xped	*	*	*	*
=98	=98	=98	=98	=98	=98	=98	=98
*	*	*	*ped	*	*	*	*
8qFFF#\	.	.	.	.	.	.	.
2C#:: 2FF#::\	4.f#:: 4.c#:: 4.A#X:: 4.F#::\	.	4.ff#^\	.	4.fff#^\	.	.
.	8c#\)	.	8cc#\)	.	8ccc#\)	.	.
*	*	*	*Xped	*	*	*	*
!!LO:LB:g=original
=99	=99	=99	=99	=99	=99	=99	=99
!	!LO:TUP:a:problem=klamra łukowa	!	!LO:TUP:a:problem=klamra łukowa	!	!LO:TUP:a:problem=klamra łukowa	!	!
2BB:: 2FF#:: 2BBB::\	(6d:: 6B:: 6F#:: 6D::\	.	(6dd\	.	(6ddd\	.	.
!	!	!	!	!	!	!	!LO:MO:null:mod=.
.	6c#\	.	6cc#\	.	6ccc#\	.	ff
.	6B\	.	6b\	.	6bb\	.	.
=100	=100	=100	=100	=100	=100	=100	=100
8qEEE/	.	.	.	.	.	.	.
!	!	!LO:MO:null:mod=.	!	!	!	!	!
2BB:: 2EE::\	4.e:: 4.B:: 4.G#:: 4.E::\	ff	4.ee^\	.	4.eee^\	.	.
.	8B\)	.	8b\)	.	8bb\)	.	.
=101	=101	=101	=101	=101	=101	=101	=101
!	!LO:TX:b:i:t=Piu vivo e leggiero:mod=più vivo e leggiero	!	!	!	!LO:TX:b:i:t=piu vivo e leggiero:mod=più vivo e leggiero	!	!
.	.	.	.	.	8qaa#\	.	.
2C# 2CC#\	8r	.	(8.a\L	.	(4aaa^\	.	.
.	4e 4A 4E\	.	.	.	.	.	.
.	.	.	16b\Jk	.	.	.	.
.	.	.	8cc#\L)	.	4eee^\)	.	.
!	!	!LO:DY:rj:a	!	!	!	!	!
!	!	!LO:MO:null:mod=.	!	!	!	!	!
.	8e 8A 8E\	p	8a\J	.	.	.	.
=102	=102	=102	=102	=102	=102	=102	=102
2D 2DD\	8r	.	(8.b\L	.	(8.ddd\L	.	.
.	4f# 4B 4A\	.	.	.	.	.	.
.	.	.	16cc#\Jk	.	16ccc#\Jk	.	.
.	.	.	8dd\L)	.	8bb\L)	.	.
.	8f# 8B 8A\	.	8cc#'\J	.	8aa'\J	.	.
=103	=103	=103	=103	=103	=103	=103	=103
4E 4EE\	8r	.	8b'/L	.	(8gg#\L	.	.
.	8d 8B 8A\	.	8a'/J	.	8ff#\J	.	.
!	!	!LO:MO:null:mod=.	!	!	!	!	!
4EE\	8r	p	4g#^/	.	8ee\L	.	.
.	8e 8d 8G#\	.	.	.	8bb\J)	.	.
=104	=104	=104	=104	=104	=104	=104	=104
2AA 2AAA\	8r	.	2a^>/	.	(8aa\L	.	.
.	8e 8c# 8A\	.	.	.	8ee\	.	.
.	4E^\	.	.	.	8cc#\	.	.
.	.	.	.	.	8dd\J)	.	.
!!LO:LB:g=original
=105	=105	=105	=105	=105	=105	=105	=105
!	!	!	!	!	!LO:TUP:a:problem=klamra łukowa	!	!
!	!LO:TX:b:t=maestozo:mod=	!	!LO:TUP:b:problem=klamra łukowa	!	!LO:TX:a:t=maestozo:mod=	!	!LO:MO:null:mod=f
2AA 2AAA\	2c# 2A 2E\	f	(>6e/	.	(6ee\	.	.
!	!	!	!	!	!	!	!LO:DY:rj:t=f.
!	!	!	!	!	!	!	!LO:MO:null:mod=.
.	.	.	6d/	.	6dd\	.	f
.	.	.	6e/	.	6ee\	.	.
=106	=106	=106	=106	=106	=106	=106	=106
2FFn\	4cn 4A 4E-X\	.	4.fn/	.	4.ffn 4.a\	.	sf
.	4A 4Fn 4E-\	.	.	.	.	.	.
.	.	.	8cn/)	.	8ccn\)	.	.
=107	=107	=107	=107	=107	=107	=107	=107
!	!	!	!	!	!LO:TUP:a:problem=klamra łukowa	!	!
2BB-X 2BBB-X\	4B-X 4Fn 4D\	.	(>6d/	.	(6dd\	.	.
.	.	.	6cn/	.	6ccn\	.	.
.	4F 4D\	.	.	.	.	.	.
.	.	.	6B-X/	.	6b-X\	.	.
=108	=108	=108	=108	=108	=108	=108	=108
!	!LO:TX:b:i:t=rit.	!LO:DY:t=pp	!	!	!LO:TX:b:i:t=rit:mod=rit.	!	!
2EE\	2G#X 2E 2BBn\	pp	4.e/	.	4.ee 4.g#\	.	pp
.	.	.	8Bn/)	.	8bn\)	.	.
=109	=109	=109	=109	=109	=109	=109	=109
!	!	!	!	!	!LO:MO:mod=!LO&colon;TX&colon;a&colon;t=a tempo	!	!
!	!	!	!	!	!LO:TX:b:t=a tempo.	!	!
!	!LO:MO:mod=!LO&colon;TX&colon;a&colon;t=a tempo	!	!	!	!LO:MO:null:mod=!LO&colon;TX&colon;i&colon;b&colon;t=leggiero	!	!
!	!LO:TX:b:t=a tempo.	!	!	!	!LO:TX:a:i:t=leggiero	!	!
4.CC#\	8r	.	2r	.	(8.a\L	.	.
.	8A 8E\	.	.	.	.	.	.
.	.	.	.	.	16b\Jk	.	.
.	8e 8A 8E^\	.	.	.	8cc#\L)	.	.
8C#\	8r	.	.	.	8a\J	.	.
=110	=110	=110	=110	=110	=110	=110	=110
*	*	*	*	*	*	*	*^
4.DD\	8r	.	4r	.	(8.b\L	.	<	.
.	8B 8A\	.	.	.	.	.	.	.
.	.	.	.	.	16ccn\K	.	.	.
!	!LO:TX:b:i:t=rit.	!	!	!	!LO:TX:a:i:t=rit:mod=rit.	!	!	!LO:DY:b=2
.	[4B [4A\	.	[>4fn/	.	8dd\)	.	.	sf
8D\	.	.	.	.	8cc'\J	.	[	.
*	*	*	*	*	*	*	*v	*v
!!LO:LB:g=original
=111	=111	=111	=111	=111	=111	=111	=111
!	!LO:MO:null:mod=!LO&colon;TX&colon;i&colon;b&colon;t=poco rit.	!	!	!	!	!	!
!	!	!	!LO:TX:b:t=P:problem=koniec ligatury na dole	!	!LO:TX:b:i:t=Poco ri tartan.:mod=poco rit.	!	!
4GGn\	8B] 8A\]	.	8f/]	.	8b/L	.	.
!	!LO:MO:mod=!null:null	!	!	!	!	!	!
!	!LO:N:vis=8	!	!	!	!	!	!
.	4A 4Fn\	.	4fn/	.	8a/J	.	.
4GGGn\	.	.	.	.	4gn/	.	.
.	8B 8F\	.	8f/	.	.	.	.
=112	=112	=112	=112	=112	=112	=112	=112
!	!	!	!LO:MO:null:mod=*ped	!	!LO:MO:null:mod=.	!	!
*	*	*	*	*	*ped	*	*
4CCn;\	8r	.	4.e::;/	.	4.ee:: 4.gn::;\	.	.
.	4.cn 4.Gn 4.E;\	.	.	.	.	.	.
4Cn\	.	.	.	.	.	.	.
!	!	!	!LO:MO:null:mod=*Xped	!	!LO:MO:null:mod=.	!	!
*	*	*	*	*	*Xped	*	*
!	!	!	!	!	!LO:MO:mod=!LO&colon;TX&colon;a&colon;t=a tempo	!	!
!	!	!	!	!	!LO:TX:b:t=a tempo.	!	!
.	.	.	8r	.	8e/	.	.
=113	=113	=113	=113	=113	=113	=113	=113
!	!LO:MO:null:mod=!LO&colon;TX&colon;a&colon;t=a tempo	!	!	!	!	!	!
!	!	!	!	!	!	!	!
4EE\	8r	.	8r	.	(8.g#X/L	.	.
!	!LO:TX:b:t=a tempo.:mod=	!	!	!	!	!	!
.	8G#X 8E\	.	4e 4d/	.	.	.	.
.	.	.	.	.	16a/Jk	.	.
4EE\	8r	.	.	.	8b/L)	.	.
.	8G# 8E\	.	8e 8d/	.	8g#/J	.	<
=114	=114	=114	=114	=114	=114	=114	=114
4AA\	8r	.	8r	.	8.a/L	.	.
.	8A 8E\	.	4e 4c#/	.	.	.	.
.	.	.	.	.	16b/Jk	.	.
4FF#\	8r	.	.	.	8cc#/L	.	[
.	8A 8F#\	.	8f# 8c#/	.	8a/J	.	.
=115	=115	=115	=115	=115	=115	=115	=115
!	!	!	!	!	!LO:TX:b:i:t=ritar.:mod=rit.	!	!
4BB\	8r	.	8r	.	8dd'\L	.	.
!	!LO:TX:b:i:t=ritar.:mod=rit.	!	!	!	!	!	!
.	8F#\	.	4f# 4d/	.	8cc#'\J	.	.
4BBB\	8r	.	.	.	4b\	.	.
!	!	!	!LO:MO:mod=!null:null	!	!	!	!
!	!	!	!LO:N:vis=4	!	!	!	!
.	8B 8F#\	.	8f# 8d/	.	.	.	.
=116	=116	=116	=116	=116	=116	=116	=116
*	*	*	*^	*	*	*	*
4BBB\	4BB\	.	[4d^/	8r	.	4f#/	.	.
!	!LO:MO:mod=!LO&colon;TX&colon;a&colon;t=lento	!	!	!	!	!	!	!
!	!LO:TX:b:i:t=lento	!	!	!	!	!LO:TX:a:t=lento.:mod=lento	!	!
.	.	.	.	[8c#\L	.	.	.	.
4EE;\	4E;\	.	4d;/]	8c#\]	.	4g#;/	.	.
.	.	.	.	8B\J	.	.	.	.
*	*	*	*v	*v	*	*	*	*
!!LO:LB:g=original
=117	=117	=117	=117	=117	=117	=117	=117
!	!LO:MO:null:mod=!LO&colon;TX&colon;a&colon;t=a tempo	!	!	!	!LO:MO:null:mod=!LO&colon;TX&colon;a&colon;t=a tempo	!	!
!	!	!	!	!	!	!	!
[2AA [2AAA\	8A 8E\	.	8c#/	.	8a 8e/	.	.
!	!LO:TX:b:i:t=a tempo:mod=	!	!	!	!LO:TX:a:i:t=a tempo.:mod=	!	!
.	(16c#\LL	.	8r	.	[<4.eeTT\	.	.
.	16e\JJ	.	.	.	.	.	.
.	16B\LL	.	4r	.	.	.	.
.	16d#X\	.	.	.	.	.	.
.	16A\	.	.	.	.	.	.
.	16c#\JJ	.	.	.	.	.	.
=118	=118	=118	=118	=118	=118	=118	=118
2AA_ 2AAA\_	16c#\LL	.	4e/	.	(<2eeTTT\]	.	.
.	16B\	.	.	.	.	.	.
.	8qc#/	.	.	.	.	.	.
.	16B\	.	.	.	.	.	.
.	16G#\JJ	.	.	.	.	.	.
.	[<4E\)	.	(16cc#\LL	.	.	.	.
.	.	.	16b\	.	.	.	.
.	.	.	8qcc#/	.	.	.	.
.	.	.	16b\	.	.	.	.
.	.	.	16g#\JJ	.	.	.	.
=119	=119	=119	=119	=119	=119	=119	=119
4AA] 4AAA\]	8E\]	.	8e\)	.	8eee\)	.	.
!	!	!LO:HP:a	!	!	!	!	!
.	(8c#L\	<	8r	.	8r	.	.
*8ba	*	*	*	*	*	*	*
!	!LO:TX:b:i:t=rit:mod=	!	!	!	!	!	!
4EEE\	8d#X 8G# 8E^\	[	4r	.	4r	.	.
.	8B\J)	.	.	.	.	.	.
*X8ba	*	*	*	*	*	*	*
=120	=120	=120	=120	=120	=120	=120	=120
!	!LO:MO:mod=!LO&colon;TX&colon;a&colon;t=a tempo	!	!	!	!LO:MO:null:mod=!LO&colon;TX&colon;a&colon;t=[a tempo]	!	!
!	!LO:TX:b:i:t=a tempo	!	!	!	!	!	!
[2AA [2AAA\	8c# 8A 8E\	.	2r	.	8r	.	.
.	(16c#\LL	.	.	.	[<4.eeTT\	.	.
.	16e\JJ	.	.	.	.	.	.
.	16B\LL	.	.	.	.	.	.
.	16d#X\	.	.	.	.	.	.
.	16A\	.	.	.	.	.	.
.	16c#\JJ	.	.	.	.	.	.
=121	=121	=121	=121	=121	=121	=121	=121
2AA_ 2AAA\_	16c#\LL	.	4e^>/	.	(<2eeTTT\]	.	.
.	16B\	.	.	.	.	.	.
.	8qc#/	.	.	.	.	.	.
.	16B\	.	.	.	.	.	.
.	16G#\JJ	.	.	.	.	.	.
.	[<4E\)	.	(16cc#\LL	.	.	.	.
.	.	.	16b\	.	.	.	.
.	.	.	8qcc#/	.	.	.	.
.	.	.	16b\	.	.	.	.
.	.	.	16g#\JJ	.	.	.	.
=122	=122	=122	=122	=122	=122	=122	=122
4AA] 4AAA\]	8E\]	.	8e\)	.	8eee\)	.	.
!	!	!LO:HP:a	!	!	!	!	!
.	(8c#\L	<	8r	.	8r	.	.
*8ba	*	*	*	*	*	*	*
!	!LO:TX:b:i:t=rit:mod=rit.	!	!	!	!	!	!
4EEE^\	8d#X 8G# 8E\	[	4r	.	4r	.	.
.	8B\J)	.	.	.	.	.	.
*X8ba	*	*	*	*	*	*	*
!!LO:PB:g=original
=123	=123	=123	=123	=123	=123	=123	=123
!!!OMD:
!!!OMD-mod: Vivace
!	!LO:TX:a:B:t=Vivace.:mod=	!	!	!	!LO:TX:a:B:t=Vivace:mod=	!	!
4.AA\	4.c# 4.A 4.E\	p	8r	.	8r	.	.
!	!	!	!LO:SIC:s=(8qf#	!	!LO:SIC:s=(>>8qff#/	!	!
.	.	.	8qf#/	.	(8qff#/	.	.
!	!	!	!	!	!	!	!LO:MO:null:mod=!LO&colon;DY&colon;ed=brack
!	!	!	!	!	!	!	!
!	!	!	!	!	!LO:SIC:s=16ee\LL	!	!LO:MO:null:mod=p
.	.	.	16e/LL	.	(16ee\LL)	.	.
!	!	!	!LO:SIC:s=16d#X/JJ)	!	!	!	!
.	.	.	16d#X/JJ	.	16dd#X\JJ)	.	.
.	.	.	(16e/LL	.	(16ee\LL	.	.
.	.	.	16f#/	.	16ff#\	.	.
8EE\	8B 8G# 8E\	.	16g#/	.	16gg#\	.	.
.	.	.	16f#/JJ	.	16ff#\JJ	.	.
=124	=124	=124	=124	=124	=124	=124	=124
8AA'\L	8c#L 8A 8E'\	.	16e/LL	.	16ee\LL	.	.
.	.	.	16f#/	.	16ff#\	.	.
8EE'\	8B 8G# 8E'\	.	16g#/	.	16gg#\	.	.
.	.	.	16f#/JJ	.	16ff#\JJ	.	.
8AA'\	8c# 8A 8E'\	.	16e/LL	.	16ee\LL	.	.
.	.	.	16f#/	.	16ff#\	.	.
8EE'\J	8BJ 8G# 8E'\	.	16g#/	.	16gg#\	.	.
.	.	.	16f#/JJ	.	16ff#\JJ	.	.
=125	=125	=125	=125	=125	=125	=125	=125
8AA\	8c# 8A 8E\	.	8e/)	.	8ee\)	.	.
.	.	.	(>8qf#/	.	(>>8qff#/	.	.
4AA^\	4c# 4A 4E^\	.	16e/LL	.	16ee\LL	.	.
.	.	.	16d#X/JJ)	.	16dd#X\JJ)	.	.
.	.	.	(>16e/LL	.	(16ee\LL	.	.
.	.	.	16f#/	.	16ff#\	.	.
8DD'\	8c# 8A 8F#\	.	16a/	.	16aa\	.	.
.	.	.	16f#/JJ	.	16ff#\JJ	.	.
=126	=126	=126	=126	=126	=126	=126	=126
8AA'\L	8c#L 8A 8E'\	.	16e/LL	.	16ee\LL	.	.
.	.	.	16f#/	.	16ff#\	.	.
8DD'\	8c# 8A 8F#'\	pp	16a/	.	16aa\	.	.
.	.	.	16f#/JJ	.	16ff#\JJ	.	.
8AA'\	8c# 8A 8E'\	.	16e/LL	.	16ee\LL	.	.
.	.	.	16f#/	.	16ff#\	.	.
8DD'\J	8c#J 8A 8F#'\	.	16a/	.	16aa\	.	.
.	.	.	16f#/JJ)	.	16ff#\JJ)	.	.
=127	=127	=127	=127	=127	=127	=127	=127
*	*	*	*ped	*	*	*	*
!	!	!LO:MO:mod=!null:null	!	!	!	!	!
!	!LO:TX:a:t=Accelerando molto:mod=accelerando molto:dur=2h	!LO:DY:t=sf.	!	!	!	!	!
[2AA [2AAA\	[2c# [2A [2E\	sf	4r	.	(16ee\LL	.	.
.	.	.	.	.	16ff#\	.	.
!	!	!	!	!	!LO:TX:a:t=accelerando molto:dur=3qe	!	!
.	.	.	.	.	16aa\	.	.
!	!	!	!	!	!LO:TX:b:i:t=sempre legato.:mod=sempre legato	!	!
.	.	.	.	.	16ff#\JJ	.	.
.	.	.	16r	.	16ee\	.	.
.	.	.	16cc#\LL	2	16r	.	.
.	.	.	16a\	3	8r	.	.
.	.	.	16f#\JJ	4	.	.	.
=128	=128	=128	=128	=128	=128	=128	=128
2AA_ 2AAA\_	2c#_ 2A_ 2E\_	.	16e\LL	5	4r	.	.
.	.	.	16a\	3	.	.	.
.	.	.	16cc#\	2	.	.	.
.	.	.	16ee\JJ	1	.	.	.
.	.	.	4r	.	16ff#\LL	.	.
.	.	.	.	.	16aa\	.	.
.	.	.	.	.	16ccc#\	.	.
.	.	.	.	.	16aa\JJ	.	.
!!LO:LB:g=original
=129	=129	=129	=129	=129	=129	=129	=129
2AA_ 2AAA\_	2c#_ 2A_ 2E\_	.	16r	.	16ff#\	.	.
.	.	.	16ee\LL	.	16r	.	.
.	.	.	16cc#\	.	8r	.	<
.	.	.	16a\	.	.	.	.
.	.	.	16f#\	.	4r	.	.
.	.	.	16a\	.	.	.	.
.	.	.	16cc#\	.	.	.	.
.	.	.	16ff#\JJ	.	.	.	.
=130	=130	=130	=130	=130	=130	=130	=130
2AA] 2AAA\]	2c#] 2A] 2E\]	.	4r	.	16aa\LL	.	.
.	.	.	.	.	16ccc#\	.	.
.	.	.	.	.	16eee\	.	.
.	.	.	.	.	16ccc#\JJ	.	.
.	.	.	16r	.	16aa\	.	.
.	.	.	16ff#\LL	2	16r	.	.
.	.	.	16ee\	3	8r	.	.
.	.	.	16cc#\JJ	4	.	.	.
*	*clefG2	*	*	*	*	*	*
=131	=131	=131	=131	=131	=131	=131	=131
4r	8aL 8f# 8c#^/	.	16ee\LL	3	4r	.	[
!	!LO:MO:null:mod=!LO&colon;TX&colon;i&colon;b&colon;t=leggiero	!	!	!	!	!	!
!	!LO:TX:b:t=leggiero.	!	!	!	!	!	!
.	.	.	16ff#\	2	.	.	.
.	8e'/J	.	16aa\	1	.	.	.
.	.	.	16ccc#\JJ	2	.	.	.
8E'\L	4r	.	4r	.	16eee\LL	.	.
!	!	!	!	!	!	!	!LO:MO:mod=!null:null
!	!	!	!	!	!	!	!LO:HP:t=cres.
.	.	.	.	.	16fff#\	.	<
8EE'\J	.	.	.	.	16aaa\	.	.
.	.	.	.	.	16fff#\JJ	.	.
=132	=132	=132	=132	=132	=132	=132	=132
!	!LO:S:s=3:note:problem=note-level slur	!	!	!	!	!	!
4r	8cc#L 8a (>8f#^/	.	16r	.	16eee\	.	.
.	.	.	16ccc#\LL	2	16r	.	.
.	8e'/J)	.	16aa\	3	8r	.	.
.	.	.	16ff#\JJ	4	.	.	.
8E^\L	4r	.	16ee\LL	5	4r	.	.
.	.	.	16ff#\	4	.	.	.
8EE'\J	.	.	16aa\	3	.	.	.
.	.	.	16ccc#\JJ	2	.	.	.
=133	=133	=133	=133	=133	=133	=133	=133
!	!LO:S:s=3:note:problem=note-level slur	!	!	!	!	!	!
4r	8cc#L 8a (>8f#^/	.	16eee\	1	16r	.	.
*	*	*	*	*	*8va	*	*
.	.	.	16r	.	16fff#\LL	2	.
.	8e'/J)	.	8r	.	16aaa\	1	.
.	.	.	.	.	16cccc#\JJ	3	.
4EE 4EEE;\	4r;	.	4r;	.	8eeee;\)	5	.
*	*	*	*Xped	*	*X8va	*	*
.	.	.	.	.	8r	.	.
=134	=134	=134	=134	=134	=134	=134	=134
*	*^	*	*	*	*	*	*
4r	8r	4ryy	.	2r	.	2r	.	.
!	!LO:TX:b:i:t=esſpres.:mod=espress.	!	!LO:MO:mod=!null:null	!	!	!	!	!
!	!LO:MO:mod=!LO&colon;TX&colon;a&colon;t=lento	!	!	!	!	!LO:MO:mod=!LO&colon;TX&colon;a&colon;t=lento	!	!
!	!LO:TX:a:i:t=lento	!	!LO:DY:rj:t=f.	!	!	!LO:TX:b:i:t=lento	!	!
.	8f#/L	.	f <	.	.	.	.	.
4EE 4EEE'\	8g#^/	4d 4G#\	[	.	.	.	.	.
.	8e/J	.	.	.	.	.	.	.
*	*v	*v	*	*	*	*	*	*
!!LO:LB:g=original
=135	=135	=135	=135	=135	=135	=135	=135
*	*clefF4	*	*ped	*	*	*	*
4AA 4AAA\	4e 4c# 4A 4E\	.	4aa:: 4ee:: 4cc#:: 4a::\	.	4cccc#:: 4eee:: 4ccc#::\	.	.
4r	4r	.	4r	.	4r	.	.
=136	=136	=136	=136	=136	=136	=136	=136
4AA 4AAA\	4c# 4A 4E\	.	4a 4e\	.	4ccc# 4aa 4ee 4cc#\	.	.
4r	4r	.	4r	.	4r	.	.
=137	=137	=137	=137	=137	=137	=137	=137
*8ba	*	*	*	*	*	*	*
4AAA 4AAAA;\	2r;	.	2r;	.	2r;	.	.
4r	.	.	.	.	.	.	.
*X8ba	*	*	*Xped	*	*	*	*
==	==	==	==	==	==	==	==
*-	*-	*-	*-	*-	*-	*-	*-
!!!system-decoration: {(p1)}{(p2)}
!!!RDF**kern: > = above
!!!RDF**kern: < = below
!!!RDF**kern: N = linked
!!LO:MO:ori
!!!RDF**dynam: p = "p."
!!!RDF**dynam: pp = "pp."
!!LO:MO:end
!!!ENC: Anastazja Marusiak
!!!END: 2021-11-09
!!!ENC: Andrzej Kubiczek
!!!END: 2021-11-13
!!!ENC-modern: Andrzej Borzym
!!!END-modern: 2022-08-28
!!!YEC: Copyright 2022 Narodowy Instytut Fryderyka Chopina (https://polishscores.org)
!!!YEM: Licence CC BY 4.0 (https://creativecommons.org/licenses/by/4.0)
